Misc/spline_axes.svg

<svg xmlns="http://www.w3.org/2000/svg" viewBox="0 0 1200 800" preserveAspectRatio="none" width="1200" height="800">
 <path d="M0,0H1200V800H0Z" style="fill: white;"></path>
 <g>
  <g transform="translate(120,80)">
   <path d="M0,0H960V640H0Z" style="fill: white; stroke: black; stroke-width: 1;"></path>
   <svg x="0" y="0" overflow="hidden" width="960" height="640" viewBox="0 0 960 640">
    <g>
     <path d="M5,267l10,7l9,12l10,14l9,12l10,7h10l9,-7l10,-12l9,-14l10,-12l10,-7l9,2l10,12l9,22l10,32l10,36l9,35l10,30l9,18l10,2l10,-16l9,-35l10,-49l9,-59l10,-62l10,-57l9,-43l10,-23l9,1l10,28l10,52l9,71l10,82l9,82l10,73l10,54l9,27l10,-4l9,-36l10,-65l10,-85l9,-96l10,-96l9,-82l10,-60l10,-29l9,6l10,40l9,70l10,92l10,101l9,99l10,85l9,61l10,28l10,-7l9,-40l10,-69l9,-89l10,-97l10,-94l9,-78l10,-55l9,-25l10,7l10,37l9,62l10,77l9,84l10,79l10,64l9,44l10,19l9,-8l10,-30l10,-49l9,-60l10,-62l9,-56l10,-45l10,-28l9,-9l10,8l9,23l10,32l10,36l9,35l10,29l9,19l10,8l10,-2l9,-9l10,-13l9,-14l10,-11l10,-4l9,2l10,9l9,13" style="fill: none; stroke: red; stroke-width: 2;"></path>
    </g>
    <g>
     <path d="M-9.6,305.8C-8.31,309.04,-3.84,316.52,0,320.34S5.76,324.63,9.6,324.92S15.36,324.13,19.2,321.78S24.96,317.27,28.8,313.19S34.56,306.29,38.4,301.38S44.16,293.46,48,288.61S53.76,281.02,57.6,277.14S63.36,271.22,67.2,269.21S72.96,266.32,76.8,267.08S82.56,268.56,86.4,272.99S92.16,280.54,96,289.19S101.76,304,105.6,316.22S111.36,336.16,115.2,350.32S120.96,372.72,124.8,387.05S130.56,409.25,134.4,421.96S140.16,441.29,144,450.61S149.76,464.39,153.6,468.56S159.36,473.55,163.2,471.48S168.96,466.25,172.8,458.23S178.56,444.28,182.4,431.37S188.16,410.36,192,393.66S197.76,367.25,201.6,347.87S207.36,317.71,211.2,296.78S216.96,264.27,220.8,243.23S226.56,210.73,230.4,191.59S236.16,162.5,240,147.54S245.76,125.29,249.6,116.79S255.36,104.8,259.2,105.05S264.96,107.43,268.8,118.02S274.56,137.87,278.4,158S284.16,191.79,288,218.65S293.76,261.77,297.6,292.3S303.36,340.16,307.2,371.28S312.96,419.16,316.8,447.93S322.56,491.21,326.4,515.12S332.16,550.52,336,567.51S341.76,592.02,345.6,600.07S351.36,610.67,355.2,607.79S360.96,600.59,364.8,585.68S370.56,558.7,374.4,533.26S380.16,491.08,384,458.47S389.76,406.43,393.6,370.22S399.36,313.68,403.2,277.4S408.96,221.9,412.8,188.82S418.56,139.04,422.4,111.97S428.16,71.89,432,53.47S437.76,27.02,441.6,19.88S447.36,11.77,451.2,17.78S456.96,31.49,460.8,49.94S466.56,81.94,470.4,110.01S476.16,155.68,480,190.29S485.76,245.03,489.6,283.08S495.36,342.37,499.2,380.52S504.96,439.17,508.8,473.85S514.56,526.38,518.4,553.94S524.16,594.75,528,611.65S533.76,634.16,537.6,638.43S543.36,640.87,547.2,633.01S552.96,617.61,556.8,599.15S562.56,568.2,566.4,540.71S572.16,495.97,576,461.73S581.76,406.99,585.6,369.51S591.36,310.92,595.2,274.33S600.96,218.16,604.8,186.56S610.56,139.76,614.4,116.35S620.16,83.21,624,69.51S629.76,51.14,633.6,47.82S639.36,45.26,643.2,52.9S648.96,68,652.8,86.03S658.56,117.12,662.4,143.06S668.16,185.2,672,215.71S677.76,263.84,681.6,295.61S687.36,344.52,691.2,374.54S696.96,420,700.8,445.68S706.56,484.03,710.4,502.93S716.16,530.22,720,540.21S725.76,552.38,729.6,552.87S735.36,550.62,739.2,542.67S744.96,528.12,748.8,513.16S754.56,488.21,758.4,467.86S764.16,434.86,768,411.4S773.76,374.36,777.6,350.54S783.36,313.71,787.2,292.29S792.96,260.36,796.8,243.47S802.56,219.19,806.4,207.85S812.16,192.04,816,186.76S821.76,180.36,825.6,181.47S831.36,185.46,835.2,192.33S840.96,204.81,844.8,215.78S850.56,233.97,854.4,247.22S860.16,268.24,864,282.03S869.76,303.31,873.6,316.15S879.36,335.67,883.2,346.22S888.96,361.85,892.8,368.9S898.56,378.33,902.4,381.48S908.16,384.9,912,384.67S917.76,383.2,921.6,380.33S927.36,374.97,931.2,370.32S939.05,359.84,940.8,357.07" style="fill: none; stroke: #00ff00; stroke-width: 3;"></path>
    </g>
   </svg>
   <g>
    <g transform="translate(0,640)">
     <path d="M0,0h960M2,-12V0M30,-12V0M57,-24V0M85,-12V0M113,-12V0M141,-12V0M168,-12V0M196,-24V0M224,-12V0M251,-12V0M279,-12V0M307,-12V0M335,-24V0M362,-12V0M390,-12V0M418,-12V0M445,-12V0M473,-24V0M501,-12V0M528,-12V0M556,-12V0M584,-12V0M612,-24V0M639,-12V0M667,-12V0M695,-12V0M722,-12V0M750,-24V0M778,-12V0M806,-12V0M833,-12V0M861,-12V0M889,-24V0M916,-12V0M944,-12V0" style="stroke: black; stroke-width: 1;"></path>
     <g font-family="Arial" font-size="28" space="preserve" fill="black" text-anchor="middle">
      <text dy=".8em" transform="translate(57,1)">
       0
      </text>
      <text dy=".8em" transform="translate(196,1)">
       5
      </text>
      <text dy=".8em" transform="translate(335,1)">
       10
      </text>
      <text dy=".8em" transform="translate(473,1)">
       15
      </text>
      <text dy=".8em" transform="translate(612,1)">
       20
      </text>
      <text dy=".8em" transform="translate(750,1)">
       25
      </text>
      <text dy=".8em" transform="translate(889,1)">
       30
      </text>
     </g>
    </g>
    <g>
     <path d="M0,0v640M18,631H0M36,616H0M18,601H0M18,587H0M18,572H0M36,557H0M18,542H0M18,527H0M18,512H0M36,498H0M18,483H0M18,468H0M18,453H0M36,438H0M18,424H0M18,409H0M18,394H0M36,379H0M18,364H0M18,350H0M18,335H0M36,320H0M18,305H0M18,290H0M18,275H0M36,261H0M18,246H0M18,231H0M18,216H0M36,201H0M18,187H0M18,172H0M18,157H0M36,142H0M18,127H0M18,112H0M18,98H0M36,83H0M18,68H0M18,53H0M18,38H0M36,24H0M18,9H0" style="stroke: black; stroke-width: 1;"></path>
     <g font-family="Arial" font-size="28" space="preserve" fill="black" text-anchor="end">
      <text dy=".4em" transform="translate(-4,616)">
       -1
      </text>
      <text dy=".4em" transform="translate(-4,557)">
       -0.8
      </text>
      <text dy=".4em" transform="translate(-4,498)">
       -0.6
      </text>
      <text dy=".4em" transform="translate(-4,438)">
       -0.4
      </text>
      <text dy=".4em" transform="translate(-4,379)">
       -0.2
      </text>
      <text dy=".4em" transform="translate(-4,320)">
       0
      </text>
      <text dy=".4em" transform="translate(-4,261)">
       0.2
      </text>
      <text dy=".4em" transform="translate(-4,201)">
       0.4
      </text>
      <text dy=".4em" transform="translate(-4,142)">
       0.6
      </text>
      <text dy=".4em" transform="translate(-4,83)">
       0.8
      </text>
      <text dy=".4em" transform="translate(-4,24)">
       1
      </text>
     </g>
    </g>
    <g>
     <path d="M0,0h960M15,0V24M46,0V12M76,0V12M107,0V12M137,0V12M168,0V24M198,0V12M229,0V12M259,0V12M290,0V12M320,0V24M350,0V12M381,0V12M411,0V12M442,0V12M472,0V24M503,0V12M533,0V12M564,0V12M594,0V12M625,0V24M655,0V12M686,0V12M716,0V12M747,0V12M777,0V24M808,0V12M838,0V12M869,0V12M899,0V12M930,0V24M960,0V12" style="stroke: black; stroke-width: 1;"></path>
     <g font-family="Arial" font-size="28" space="preserve" fill="black" text-anchor="middle">
      <text transform="translate(15,-4)">
       0
      </text>
      <text transform="translate(168,-4)">
       5
      </text>
      <text transform="translate(320,-4)">
       10
      </text>
      <text transform="translate(472,-4)">
       15
      </text>
      <text transform="translate(625,-4)">
       20
      </text>
      <text transform="translate(777,-4)">
       25
      </text>
      <text transform="translate(930,-4)">
       30
      </text>
     </g>
    </g>
    <g transform="translate(960)">
     <path d="M0,0v640M0,630H-18M0,614H-18M0,598H-18M0,582H-36M0,566H-18M0,550H-18M0,534H-18M0,519H-36M0,503H-18M0,487H-18M0,471H-18M0,455H-36M0,439H-18M0,423H-18M0,407H-18M0,392H-36M0,376H-18M0,360H-18M0,344H-18M0,328H-36M0,312H-18M0,296H-18M0,280H-18M0,264H-36M0,249H-18M0,233H-18M0,217H-18M0,201H-36M0,185H-18M0,169H-18M0,153H-18M0,137H-36M0,121H-18M0,106H-18M0,90H-18M0,74H-36M0,58H-18M0,42H-18M0,26H-18M0,10H-36" style="stroke: black; stroke-width: 1;"></path>
     <g font-family="Arial" font-size="28" space="preserve" fill="black" text-anchor="start">
      <text dy=".4em" transform="translate(4,582)">
       -0.8
      </text>
      <text dy=".4em" transform="translate(4,519)">
       -0.6
      </text>
      <text dy=".4em" transform="translate(4,455)">
       -0.4
      </text>
      <text dy=".4em" transform="translate(4,392)">
       -0.2
      </text>
      <text dy=".4em" transform="translate(4,328)">
       0
      </text>
      <text dy=".4em" transform="translate(4,264)">
       0.2
      </text>
      <text dy=".4em" transform="translate(4,201)">
       0.4
      </text>
      <text dy=".4em" transform="translate(4,137)">
       0.6
      </text>
      <text dy=".4em" transform="translate(4,74)">
       0.8
      </text>
      <text dy=".4em" transform="translate(4,10)">
       1
      </text>
     </g>
    </g>
   </g>
  </g>
  <g transform="translate(120,4)" font-family="Arial" font-size="40" space="preserve">
   <text fill="black" text-anchor="middle" dy=".8em" transform="translate(480)">
    sin(x)*sin(x/10)
   </text>
  </g>
 </g>
</svg>

<svg xmlns="http://www.w3.org/2000/svg" viewBox="0 0 1200 800" preserveAspectRatio="none" width="1200" height="800">
 <path d="M0,0H1200V800H0Z" style="fill: white;"></path>
 <g>
  <g transform="translate(120,80)">
   <path d="M0,0H960V640H0Z" style="fill: white; stroke: black; stroke-width: 1;"></path>
   <svg x="0" y="0" overflow="hidden" width="960" height="640" viewBox="0 0 960 640">
    <g>
     <path d="M5,267L15,274L24,286L34,300L43,312L53,319L63,319L72,312L82,300L91,286L101,274L111,267L120,269L130,281L139,303L149,335L159,371L168,406L178,436L187,454L197,456L207,440L216,405L226,356L235,297L245,235L255,178L264,135L274,112L283,113L293,141L303,193L312,264L322,346L331,428L341,501L351,555L360,582L370,578L379,542L389,477L399,392L408,296L418,200L427,118L437,58L447,29L456,35L466,75L475,145L485,237L495,338L504,437L514,522L523,583L533,611L543,604L552,564L562,495L571,406L581,309L591,215L600,137L610,82L619,57L629,64L639,101L648,163L658,240L667,324L677,403L687,467L696,511L706,530L715,522L725,492L735,443L744,383L754,321L763,265L773,220L783,192L792,183L802,191L811,214L821,246L831,282L840,317L850,346L859,365L869,373L879,371L888,362L898,349L907,335L917,324L927,320L936,322L946,331L955,344" style="fill: none; stroke: red; stroke-width: 2;"></path>
    </g>
    <g>
     <path d="M-9.6,305.8C-8.31,309.04,-3.84,316.52,0,320.34S5.76,324.63,9.6,324.92S15.36,324.13,19.2,321.78S24.96,317.27,28.8,313.19S34.56,306.29,38.4,301.38S44.16,293.46,48,288.61S53.76,281.02,57.6,277.14S63.36,271.22,67.2,269.21S72.96,266.32,76.8,267.08S82.56,268.56,86.4,272.99S92.16,280.54,96,289.19S101.76,304,105.6,316.22S111.36,336.16,115.2,350.32S120.96,372.72,124.8,387.05S130.56,409.25,134.4,421.96S140.16,441.29,144,450.61S149.76,464.39,153.6,468.56S159.36,473.55,163.2,471.48S168.96,466.25,172.8,458.23S178.56,444.28,182.4,431.37S188.16,410.36,192,393.66S197.76,367.25,201.6,347.87S207.36,317.71,211.2,296.78S216.96,264.27,220.8,243.23S226.56,210.73,230.4,191.59S236.16,162.5,240,147.54S245.76,125.29,249.6,116.79S255.36,104.8,259.2,105.05S264.96,107.43,268.8,118.02S274.56,137.87,278.4,158S284.16,191.79,288,218.65S293.76,261.77,297.6,292.3S303.36,340.16,307.2,371.28S312.96,419.16,316.8,447.93S322.56,491.21,326.4,515.12S332.16,550.52,336,567.51S341.76,592.02,345.6,600.07S351.36,610.67,355.2,607.79S360.96,600.59,364.8,585.68S370.56,558.7,374.4,533.26S380.16,491.08,384,458.47S389.76,406.43,393.6,370.22S399.36,313.68,403.2,277.4S408.96,221.9,412.8,188.82S418.56,139.04,422.4,111.97S428.16,71.89,432,53.47S437.76,27.02,441.6,19.88S447.36,11.77,451.2,17.78S456.96,31.49,460.8,49.94S466.56,81.94,470.4,110.01S476.16,155.68,480,190.29S485.76,245.03,489.6,283.08S495.36,342.37,499.2,380.52S504.96,439.17,508.8,473.85S514.56,526.38,518.4,553.94S524.16,594.75,528,611.65S533.76,634.16,537.6,638.43S543.36,640.87,547.2,633.01S552.96,617.61,556.8,599.15S562.56,568.2,566.4,540.71S572.16,495.97,576,461.73S581.76,406.99,585.6,369.51S591.36,310.92,595.2,274.33S600.96,218.16,604.8,186.56S610.56,139.76,614.4,116.35S620.16,83.21,624,69.51S629.76,51.14,633.6,47.82S639.36,45.26,643.2,52.9S648.96,68,652.8,86.03S658.56,117.12,662.4,143.06S668.16,185.2,672,215.71S677.76,263.84,681.6,295.61S687.36,344.52,691.2,374.54S696.96,420,700.8,445.68S706.56,484.03,710.4,502.93S716.16,530.22,720,540.21S725.76,552.38,729.6,552.87S735.36,550.62,739.2,542.67S744.96,528.12,748.8,513.16S754.56,488.21,758.4,467.86S764.16,434.86,768,411.4S773.76,374.36,777.6,350.54S783.36,313.71,787.2,292.29S792.96,260.36,796.8,243.47S802.56,219.19,806.4,207.85S812.16,192.04,816,186.76S821.76,180.36,825.6,181.47S831.36,185.46,835.2,192.33S840.96,204.81,844.8,215.78S850.56,233.97,854.4,247.22S860.16,268.24,864,282.03S869.76,303.31,873.6,316.15S879.36,335.67,883.2,346.22S888.96,361.85,892.8,368.9S898.56,378.33,902.4,381.48S908.16,384.9,912,384.67S917.76,383.2,921.6,380.33S927.36,374.97,931.2,370.32S939.05,359.84,940.8,357.07" style="fill: none; stroke: #00ff00; stroke-width: 3;"></path>
    </g>
   </svg>
   <g>
    <g transform="translate(0,640)">
     <path d="M0,0h960M2,-12V0M30,-12V0M57,-24V0M85,-12V0M113,-12V0M141,-12V0M168,-12V0M196,-24V0M224,-12V0M251,-12V0M279,-12V0M307,-12V0M335,-24V0M362,-12V0M390,-12V0M418,-12V0M445,-12V0M473,-24V0M501,-12V0M528,-12V0M556,-12V0M584,-12V0M612,-24V0M639,-12V0M667,-12V0M695,-12V0M722,-12V0M750,-24V0M778,-12V0M806,-12V0M833,-12V0M861,-12V0M889,-24V0M916,-12V0M944,-12V0" style="stroke: black; stroke-width: 1;"></path>
     <g font-family="Arial" font-size="28" space="preserve" fill="black" text-anchor="middle">
      <text dy=".8em" transform="translate(57,1)">
       0
      </text>
      <text dy=".8em" transform="translate(196,1)">
       5
      </text>
      <text dy=".8em" transform="translate(335,1)">
       10
      </text>
      <text dy=".8em" transform="translate(473,1)">
       15
      </text>
      <text dy=".8em" transform="translate(612,1)">
       20
      </text>
      <text dy=".8em" transform="translate(750,1)">
       25
      </text>
      <text dy=".8em" transform="translate(889,1)">
       30
      </text>
     </g>
    </g>
    <g>
     <path d="M0,0v640M18,631H0M36,616H0M18,601H0M18,587H0M18,572H0M36,557H0M18,542H0M18,527H0M18,512H0M36,498H0M18,483H0M18,468H0M18,453H0M36,438H0M18,424H0M18,409H0M18,394H0M36,379H0M18,364H0M18,350H0M18,335H0M36,320H0M18,305H0M18,290H0M18,275H0M36,261H0M18,246H0M18,231H0M18,216H0M36,201H0M18,187H0M18,172H0M18,157H0M36,142H0M18,127H0M18,112H0M18,98H0M36,83H0M18,68H0M18,53H0M18,38H0M36,24H0M18,9H0" style="stroke: black; stroke-width: 1;"></path>
     <g font-family="Arial" font-size="28" space="preserve" fill="black" text-anchor="end">
      <text dy=".4em" transform="translate(-4,616)">
       -1
      </text>
      <text dy=".4em" transform="translate(-4,557)">
       -0.8
      </text>
      <text dy=".4em" transform="translate(-4,498)">
       -0.6
      </text>
      <text dy=".4em" transform="translate(-4,438)">
       -0.4
      </text>
      <text dy=".4em" transform="translate(-4,379)">
       -0.2
      </text>
      <text dy=".4em" transform="translate(-4,320)">
       0
      </text>
      <text dy=".4em" transform="translate(-4,261)">
       0.2
      </text>
      <text dy=".4em" transform="translate(-4,201)">
       0.4
      </text>
      <text dy=".4em" transform="translate(-4,142)">
       0.6
      </text>
      <text dy=".4em" transform="translate(-4,83)">
       0.8
      </text>
      <text dy=".4em" transform="translate(-4,24)">
       1
      </text>
     </g>
    </g>
    <g>
     <path d="M0,0h960M15,0V24M46,0V12M76,0V12M107,0V12M137,0V12M168,0V24M198,0V12M229,0V12M259,0V12M290,0V12M320,0V24M350,0V12M381,0V12M411,0V12M442,0V12M472,0V24M503,0V12M533,0V12M564,0V12M594,0V12M625,0V24M655,0V12M686,0V12M716,0V12M747,0V12M777,0V24M808,0V12M838,0V12M869,0V12M899,0V12M930,0V24M960,0V12" style="stroke: black; stroke-width: 1;"></path>
     <g font-family="Arial" font-size="28" space="preserve" fill="black" text-anchor="middle">
      <text transform="translate(15,-4)">
       0
      </text>
      <text transform="translate(168,-4)">
       5
      </text>
      <text transform="translate(320,-4)">
       10
      </text>
      <text transform="translate(472,-4)">
       15
      </text>
      <text transform="translate(625,-4)">
       20
      </text>
      <text transform="translate(777,-4)">
       25
      </text>
      <text transform="translate(930,-4)">
       30
      </text>
     </g>
    </g>
    <g transform="translate(960)">
     <path d="M0,0v640M0,630H-18M0,614H-18M0,598H-18M0,582H-36M0,566H-18M0,550H-18M0,534H-18M0,519H-36M0,503H-18M0,487H-18M0,471H-18M0,455H-36M0,439H-18M0,423H-18M0,407H-18M0,392H-36M0,376H-18M0,360H-18M0,344H-18M0,328H-36M0,312H-18M0,296H-18M0,280H-18M0,264H-36M0,249H-18M0,233H-18M0,217H-18M0,201H-36M0,185H-18M0,169H-18M0,153H-18M0,137H-36M0,121H-18M0,106H-18M0,90H-18M0,74H-36M0,58H-18M0,42H-18M0,26H-18M0,10H-36" style="stroke: black; stroke-width: 1;"></path>
     <g font-family="Arial" font-size="28" space="preserve" fill="black" text-anchor="start">
      <text dy=".4em" transform="translate(4,582)">
       -0.8
      </text>
      <text dy=".4em" transform="translate(4,519)">
       -0.6
      </text>
      <text dy=".4em" transform="translate(4,455)">
       -0.4
      </text>
      <text dy=".4em" transform="translate(4,392)">
       -0.2
      </text>
      <text dy=".4em" transform="translate(4,328)">
       0
      </text>
      <text dy=".4em" transform="translate(4,264)">
       0.2
      </text>
      <text dy=".4em" transform="translate(4,201)">
       0.4
      </text>
      <text dy=".4em" transform="translate(4,137)">
       0.6
      </text>
      <text dy=".4em" transform="translate(4,74)">
       0.8
      </text>
      <text dy=".4em" transform="translate(4,10)">
       1
      </text>
     </g>
    </g>
   </g>
  </g>
  <g transform="translate(120,4)" font-family="Arial" font-size="40" space="preserve">
   <text fill="black" text-anchor="middle" dy=".8em" transform="translate(480)">
    sin(x)*sin(x/10)
   </text>
  </g>
 </g>
</svg>
